X:1
T:Softly, O! drop mine eyes - Wilbye
T:#
%%score 1 2 { 3 | 4 } 5
L:1/8
Q:1/4=120
M:4/4
K:C
V:1 treble nm="Soprano I"
V:2 treble nm="Soprano II"
V:3 treble nm="Alto I" snm="A"
V:4 treble 
V:5 treble-8 nm="Tenor" snm="T"
V:1
"^Softly, O! drop mine eyes""^John Wilbye\n (1574-1638)" z4!p! e4- | e2 d2 d4- | d2 c2 c4 | B8 | %4
w: Soft\-|* ly, soft\-|* ly, O!|soft-|
 A4 z4 | f8- | f4 e4 | e8- |[M:4/4] e4 d4 | c4 c4 | B4 e4 | e4 d4- | d4 c4- | c4 B4 | A8 | G4 g4- | %16
w: ly|drop|* mine|eyes,|* lest|you be|dry, And|make my|* heart|* with|grief|to melt|
 g4 f4 | e8 | z4!f! e4 | e2 d2 c2 B2 | A4 z4 | z4 f4 | f2 e2 d2 c2 | B8 | z4!p! g4 | g2 f2 e2 d2 | %26
w: * and|die.|Now|pour out tears a-|pace,|now|pour out tears a-|pace,|now|pour out tears a-|
 c8 | z4 c4 | f8 | z4!f! d4- | d4 c4- | c4 B4 | c8 |!p! ^G4 B4- | B4 d4- | d2 cB c4- | %36
w: pace,|Now|stay,|O|* hea\-|* vy|case!|O sour|* sweet|* woe! a- las!|
 c2 BA B2 A2 | ^G4 G4 | A2 B2 c2 A2 | B8- | B4 B4 | B4 z2 e2 | e4 z2 c2 | B4 z2 e2 | e4 z2 c2 | %45
w: * woe a- las! a-|las! O|grief! O joy! why|strive|* you|so? Can|griefs and|joys, can|griefs and|
 B4 e4 | c4 c4 | d4 e4 | d4 d4 | c4 z2!f! e2 | g2 d2 e2 c2 | d2 d2 c2 e2 | g2 d2 e2 c2 | d4 c4 | %54
w: joys at|once in|one poor|heart con-|sent? Then|sigh and sing, re-|joice, la- ment, then|sigh and sing, re-|joice, la-|
 B4 A4 | ^G4 z4 | z4!p! e4- | e4 A4 | z8 | c8- | c4 G4 | z4"^cresc." g4- | g4 d2 f2 | e4 e4 | d8- | %65
w: ment, la-|ment.|Ah|* me!||Ah|* me!|O|* pas- sions|strange and|vi\-|
 d4 d4 | d8 | z4!mf! e2 g2- | g2 d2 f2 e2- | e2 B2 d3 c | (BA B2) A4 | z2 e2 d2 B2 | c2 A2 B2 G2 | %73
w: * o-|lent!|Was ne\-|* ver poor wretch|* so sore tor-|ment\- * * ed:|Nor joy, nor|grief can make my|
 A2 G2 F4 | E4 e2 g2- | g2 d2 f2 e2- | e2 B2 d3 c | (BA B2) A2!p! c2 | B4 A4 | ^G8 | B2 c4 d2- | %81
w: heart con- tent-|ed. Was ne\-|* ver poor wretch|* so sore tor-|ment\- * * ed: Nor|joy, nor|grief|can make my|
 d2 e4 (dc) | (d2 c4 B2) | c4 z4 | z2!f! c2 c2 d2 | e2 c2 e2 f2 | g2 e4 dc | B2 c2 c2 (BA) | G8 | %89
w: * heart con\- *|tent\- * *|ed.|For while with|joy I look on|high, Down, down I|fall, with grief and *|die,|
 z2 f4 ed | c2 d2 d2 (cB) | A6 GF | E2 z2 z4 | z8 | z2!p! e4 dc | B2 B4 AG | A8- | A4 z4 | %98
w: down, down I|fall with grief and *|die, down I|fall.||down, down I|fall, down, down I|fall,||
 z2!f! G2 G2 A2 | B2 G2 B2 c2 | d2 B4 AG | A2 A2 A2 B2 | c2 A2 c2 d2 | e2 e4 dc | B2 c4 BA | %105
w: for while with|joy I look on|high, down, down I|fall, for while with|joy I look on|high, down, down I|fall, down, down I|
 ^G4!p! e4 |[Q:1/4=115] e8 |[Q:1/4=106] e8 |[Q:1/4=102] ^c16 |] %109
w: fall with|grief,|and|die.|
V:2
 z4!p! c4- | c2 B2 B4- | B2 A2 A4- | A4 ^G4 | A8 | d8- | d4 c4 | c8- |[M:4/4] c4 B4 | A4 A4 | %10
w: Soft\-|* ly, soft\-|* ly, O!|* soft-|ly|drop|* mine|eyes,|* lest|you be|
 G4 g4- | g4 f4- | f4 e4 | d4 d4 | c8- | c4 e4- | e4 d4- | d4 c4 | B4 B4 | A8 | z8 | z4!f! d4 | %22
w: dry, And|* make|* my|heart with|grief,|* with|* grief|* to|melt and|die.||Now|
 d2 c2 B2 A2 | G8 | z4!p! e4 | e2 d2 c2 (BA) | G4 z4 | z4 f4 | f2 e2 d2 c2 | B4!f! d4 | g4 z2 g2 | %31
w: pour out tears a-|pace,|now|pour out tears a\- *|pace,|now|pour out tears a-|pace, Now|stay, O|
 f4 f4 | e8 |!p! E4 ^G4- | G4 B4- | B2 A^G A4- | A2 ^G^F G2 A2 | B6 B2 | E2 (^F^G) A4- | %39
w: hea- vy|case!|O sour|* sweet|* woe! a- las!|* woe a- las! a-|las! a-|las! O * grief!|
 A2 A2 =G2 (^FE) | ^F6 F2 | E2 e2 e4 | z4 z2 e2 | e4 z2 c2 | B4 z2 e2 | e4 z2 E2 | (A3 G AB) c2 | %47
w: * O joy! why *|strive you|so? Can griefs|and|joys, can|griefs and|joys, and|joys * * * in|
 B4 c4 | c4 B4 | c2!f! e2 g4 | z4 z2 e2 | g2 d2 e2 c2 | d2 d2 c2 e2 | g2 d2 e2 e2 | d4 c4 | %55
w: one poor|heart con-|sent? Then sigh,|then|sigh and sing, re-|joice, la- ment, then|sigh and sing, re-|joice, la-|
 B4!p! e4- | e4 E4 | z8 | z4 f4- | f4 e4 | z4 g4- | g4 d4- | d2"^cresc." d2 B2 d2 | c8- | c4 B4 | %65
w: ment. Ah|* me!||Ah|* me!|Ah|* me!|* O pas- sions|strange|* and|
 A4 A4 | B8 | z4 z2!mf! e2 | d2 B2 c2 A2 | G2 B3 A (A2- | A2 ^G2) A2 e2- | e2 g4 d2 | f2 e4 B2 | %73
w: vi- o-|lent!|Was|ne- ver poor wretch|so sore tor- ment\-|* * ed, was|* ne- ver|poor wretch so|
 d2 c2 (c2 B2) | c6 e2 | d2 B2 c2 A2 | GA B3 A (A2- | A2 ^G2) A2!p! e2 | e4 c4 | B8 | =G4 A4 | %81
w: sore tor- ment\- *|ed: Nor|joy, nor grief can|make my heart con- tent\-|* * ed, nor|joy, nor|grief|can make|
 B4 G2 g2 | (f2 e2 d4) | e4 z4 | z2!f! g2 e2 d2 | c8- | c4 z4 | z2 G2 G2 A2 | B2 G2 B2 c2 | d4 z4 | %90
w: my heart con-|tent\- * *|ed.|Down, down I|fall,||for while with|joy I look on|high,|
 z2 A2 A2 B2 | c2 A2 c2 d2 | e2 z2 z4 | z2!p! c2 c2 d2 | e2 c2 e2 ^f2 | g8 | z2 f4 ed | c2 A4 GF | %98
w: for while with|joy I look on|high,|for while with|joy I look on|high,|down, down I|fall, down, down I|
 E2!f! e4 dc | B2 B2 G2 A2 | B2 G2 B2 c2 | d8 | z2 e2 e3 d | c2 c4 BA | ^G2 e4 dc | B4!p! A4 | %106
w: fall, down, down I|fall, for while with|joy I look on|high,|down, down I|fall, down, down I|fall, down, down I|fall, with|
 ^G4 (A4- | A2 ^G^F G4) | A16 |] %109
w: grief and||die.|
V:3
 z8 | z8 | z8 | z8 | z8 | z8 | z8 | z8 |[M:4/4] z8 | z8 | z8 | z8 | z8 | z8 | z8 | z8 | z8 | z8 | %18
w: ||||||||||||||||||
 z8 | z8 | z4!f! A4 | A2 G2 F2 E2 | D8 | z4 G4 | G2 F2 E2 D2 | C8 | z4!p! c4 | c2 B2 A2 G2 | %28
w: ||Now|pour out tears a-|pace,|now|pour out tears a-|pace,|now|pour out tears a-|
 F4!f! A4 | G8- | G4 C4 | F4 F4 | G8 | z8 | z8 | z8 | z8 | z4!p! E4 | E2 D2 C2 E2 | (^D4 E4- | %40
w: pace, Now|stay,|* O|hea- vy|case!|||||O|grief! O joy! why|strive *|
 E4 ^D4 | E4 z2 c2 | B4 z2 A2 | ^G4 z2 E2 | E4 z2 A2 | =G3 ^F GA) B2 | A4 z2 E2 | G8- | G4 G4 | %49
w: * you|so? Can|griefs and|joys, can|griefs and|joys * * * in|one poor|heart|* con-|
 G4 z2!f! G2 | G4 z2 c2 | c2 B2 c2 G2 | G2 G2 C2 c2 | c2 B2 c2 G2 | G2 G2 E4- | E4 c4 | B4!p! B4 | %57
w: sent? Then|sigh, then|sigh and sing, re-|joice, la- ment, then|sigh and sing, re-|joice, la- ment,|* la-|ment. Ah|
 A8 | z4 A4 | A8 | z4 c4 | B8 |"^cresc." B4 B4- | B2 A2 A4- | A2 G2 (G4- | G2 ^FE) F4 | G8 | %67
w: me!|Ah|me!|Ah|me!|O pas\-|* sions strange|* and vi\-|* * * o-|lent!|
!mf! E2 G4 C2 | D4 z4 | z2 G2 F2 A2 | E4 E4 | z2 G2 B2 F2 | A2 E2 G2 D2 | D2 E2 F4 | G6 G2 | %75
w: Was ne- ver|wretch|so sore tor-|ment- ed:|Nor joy, nor|grief can make my|heart con- tent-|ed, nor|
 B2 F2 A2 E2 | G2 D2 D4 | z8 | z2!p! B,2 (C3 D) | E8 | z8 | z4 z2!f! G2 | A4 z2 G2 | G2 G2 A2 B2 | %84
w: joy, nor grief can|make my heart||con- tent\- *|ed.||For|while with|joy I look on|
 c4 z4 | z8 | z2 c4 BA | G2 G2 G2 (FE) | D8 | z2 d4 cB | A2 A4 GF | E2 c4 BA | G2!p! A4 GF | %93
w: high,||Down, down I|fall, with grief and *|die,|down, down I|fall, down, down I|fall, down, down I|fall, down, down I|
 E2 F4 ED | C2 G2 G2 A2 | B2 G2 B2 c2 | d4 z4 | z2 C2 C2 D2 | E2!f! C2 E2 ^F2 | G8 | z2 D2 D2 E2 | %101
w: fall, down, down I|fall, for while with|joy I look on|high,|for while with|joy I look on|high,|for while with|
 F2 D2 F2 G2 | A2 A4 GF | E2 E2 E2 ^F2 | ^G2 E2 G2 A2 | B4!p! E4 | E8 | E8 | E16 |] %109
w: joy I look on|high, down, down I|fall, for while with|joy I look on|high, I|fall|and|die.|
V:4
!p! A8 | ^G8 | A8 | E6 D2 | ^C8 | D8 | A,8 | C8 |[M:4/4] G,8 | (A,2 B,2 C2 D2) | E8 | F8 | G8- | %13
w: Soft-|ly,|O!|soft- ly|drop,|mine|eyes,|lest|you|be * * *|dry,|And|make|
 G4 G4 | E8- | E4 z2 c2 | B4 A4 | ^G4 (A4- | A4 ^G4) | A4!f! c4 | c2 B2 A2 G2 | F2 G2 A4- | A4 B4 | %23
w: * my|heart|* with|grief to|melt and||die. Now|pour out tears a-|pace, a- pace,|* Now|
 B2 A2 G2 F2 | E4 z4 | z4!p! E4 | E2 D2 C2 B,2 | A,4 A4 | A2 G2 F2 E2 | D4!f! D4 | E6 E2 | F4 D4 | %32
w: pour out tears a-|pace,|now|pour out tears a-|pace, now|pour out tears a-|pace, Now|stay, O|hea- vy|
 E8- | E4!p! E4 | ^G8 | A6 ^G^F | E6 A2 | E6 D2 | C2 B,2 A,2 C2 | B,8 | B,8 | ^G,2 E2 E4 | %42
w: case!|* O|sour|sweet woe! a-|las! a-|las! O|grief! O joy! why|strive|you|~~so? Can griefs|
 z2 E2 E4 | z2 E2 E4- | E4 z2 E2 | (E3 D E^F) G2 | =F4 C4 | G6 C2 | D4 D4 | E8 | z4 z2!f! G2 | %51
w: and joys,|can griefs|* and|joys * * * at|once in|one poor|heart con-|sent?|Then|
 G2 G2 G2 E2 | D4 z2 G2 | G6 G,2 | (B,CDB, CDE^F | ^G4)!p! A4- | A4 ^G4 | z4 A4 | F8 | z4 A4 | %60
w: sigh and sing, re-|joice, then|sigh and|sing. * * * * * * *|* Ah|* me!|Ah|me!|Ah|
 E6 ^F2 | G8 | z4"^cresc." D4 | E6 E2 | A,4 D4 | D4 D4 | D8 | z4 z2!mf! G2 | B2 F2 A2 E2 | %69
w: me! Ah|me!|O|pas- sions|strange and|vi- o-|lent!|Was|ne- ver wretch so|
 G2 D2 D2 D2 | z8 | z8 | z8 | z8 | E2 G4 C2 | D4 z4 | z2 G2 F2 A2 | E4!p! E4 | E8 | E4 z4 | E4 F4 | %81
w: sore tor- ment- ed:|||||Nor joy, nor|grief|can make my|heart con-|tent-|ed,|can make|
 G4 E4 | F4 G4 | C4 z4 | z8 | z2!f! C2 C2 D2 | E2 C2 E2 F2 | G4 z4 | z2 D2 D2 E2 | F2 D2 F2 G2 | %90
w: my heart|con- tent-|ed.||For while with|joy I look on|high,|for while with|joy I look on|
 A2 F4 ED | C8 | z2!p! A2 A2 B2 | c4 z4 | z4 G4- | G2 FE D4 | D6 CB, | A,8 | z8 | z2!f! G4 FE | %100
w: high, down, down I|fall,|I look on|high,|down,|* down I fall|down, down I|fall,||down, down I|
 D8 | z2 F4 ED | C2 c4 BA | G2 E2 G3 A | E8 | z2!p! E4 DC | B,4 A,4 | B,4 B,4 | A,16 |] %109
w: fall,|down, down I|fall, down, down I|fall, with grief and|die,|down, down I|fall with|grief and|die.|
V:5
 z8 | z8 | z8 | z8 | z8 | z8 | z8 | z8 |[M:4/4][K:treble-8] z8 | z8 | z8 | z8 | z8 | z4!p! G4 | %14
w: |||||||||||||my|
 A6 B2 | c8 | d8 | e8- | e4 e4 | A8 | z4!f! f4 | f2 e2 d2 (cB) | A4 z4 | z4 e4 | e2 d2 c2 (BA) | %25
w: heart with|grief|to|melt|* and|die.|Now|pour out tears a\- *|pace,|now|pour out tears a\- *|
 G4 z4 | z4!p! a4 | a2 g2 f2 (ed) | c4 z4 | z4!f! B4 | B4 c4 | d4 d4 | G8 | z8 | z8 | z8 | z8 | %37
w: pace,|now|pour out tears a\- *|pace,|Now|stay, O|hea- vy|case!|||||
 z8 | z8 | z8 | z4 z2!p! B2 | (B3 A B2) (cd) | (e3 d c2) A2 | (B3 A B2) (cd) | (e3 d cB) A2 | B8 | %46
w: |||Can|griefs * * and *|joys, * * can|griefs * * and *|joys * * * at|once|
 z2 c2 c2 A2 | B4 G4 | G8- | G4 z2!f! e2 | e2 d2 c2 e2 | d2 G2 G2 z2 | z8 | z2 G2 E3 F | %54
w: in one poor|heart con-|sent?|* Then|sigh and sing, re-|joice, la- ment,||then sigh and|
 (GABG ABcd | e8) |!p! e8 | e8 | d8- | d4 c4 | z4 e4- | e4 d4- | d4"^cresc." G4 | G4 A4 | ^F4 G4 | %65
w: sing. * * * * * * *||Ah|me!|Ah|* me!|Ah|* me!|* O|pas- sions|strange and|
 A6 A2 | G8 | z2!mf! e2 e2 e2 | B2 d2 c2 c2 | (B2 G2) A4 | z2 B2 c2 A2 | e2 c2 d4 | c4 B4 | %73
w: vi- o-|lent!|Was ne- ver|wretch so sore tor-|ment\- * ed:|Nor joy nor|grief can make|my heart|
 (AB c2) d4 | G2 e2 e2 e2 | B2 d2 c2 c2 | (B2 G2) A4 | z2!p! B2 c3 d | e4 A4 | B8 | z8 | z8 | z8 | %83
w: con * * tent-|ed. Was ne- ver|wretch so sore tor-|ment\- * ed:|nor joy, *|* nor|grief,||||
 z2!f! c2 c2 d2 | e2 c2 e2 f2 | g2 g2 e2 d2 | c4 z4 | z2 e4 dc | B4 G4 | d8 | z8 | z2 A2 A2 B2 | %92
w: For while with|joy I look on|high, Down, down I|fall,|down, down I|fall, with|grief,||I look on|
 c2!p! f4 ed | c2 a4 gf | e8 | z2 d2 d2 e2 | f2 d2 f2 g2 | a2 A2 A2 B2 | c8 | z2!f! d2 d2 c2 | %100
w: high, down, down I|fall, down, down I|fall,|for while with|joy I look on|high, I look on|high,|down, down I|
 B4 G4 | d4 A4 | A4 E4 | E8 | z2 E2 E2 ^F2 | ^G2!p! B2 c2 d2 | e2 e4 dc | B4 E4 | E16 |] %109
w: fall with|grief and|die, and|die,|for while with|joy I look on|high, down, down I|fall and|die.|

